hw8Responsive/images/logos/contentlogo/bluebox/baseline-hd-24px.svg

<svg width="40" height="40" viewBox="0 0 40 40" fill="none" xmlns="http://www.w3.org/2000/svg">
<path d="M31.6667 5H8.33333C6.48333 5 5 6.5 5 8.33333V31.6667C5 33.5 6.48333 35 8.33333 35H31.6667C33.5 35 35 33.5 35 31.6667V8.33333C35 6.5 33.5 5 31.6667 5ZM18.3333 25H15.8333V21.6667H12.5V25H10V15H12.5V19.1667H15.8333V15H18.3333V25ZM21.6667 15H28.3333C29.25 15 30 15.75 30 16.6667V23.3333C30 24.25 29.25 25 28.3333 25H21.6667V15ZM24.1667 22.5H27.5V17.5H24.1667V22.5Z" fill="white"/>
</svg>

<svg width="40" height="40" fill="none" xmlns="http://www.w3.org/2000/svg"><path d="M31.667 5H8.333C6.483 5 5 6.5 5 8.333v23.334A3.332 3.332 0 008.333 35h23.334C33.5 35 35 33.5 35 31.667V8.333C35 6.5 33.5 5 31.667 5zM18.333 25h-2.5v-3.333H12.5V25H10V15h2.5v4.167h3.333V15h2.5v10zm3.334-10h6.666c.917 0 1.667.75 1.667 1.667v6.666C30 24.25 29.25 25 28.333 25h-6.666V15zm2.5 7.5H27.5v-5h-3.333v5z" fill="#fff"/></svg>
